communes/152.svg

<?xml version="1.0" encoding="UTF-8" standalone="no"?>
<svg
   xmlns:dc="http://purl.org/dc/elements/1.1/"
   xmlns:cc="http://creativecommons.org/ns#"
   xmlns:rdf="http://www.w3.org/1999/02/22-rdf-syntax-ns#"
   xmlns:svg="http://www.w3.org/2000/svg"
   xmlns="http://www.w3.org/2000/svg"
   xmlns:sodipodi="http://sodipodi.sourceforge.net/DTD/sodipodi-0.dtd"
   xmlns:inkscape="http://www.inkscape.org/namespaces/inkscape"
   version="1.0"
   width="220.03429"
   height="257.73593"
   id="svg2780"
   sodipodi:docname="152.svg">
  <metadata
     id="metadata11">
    <rdf:RDF>
      <cc:Work
         rdf:about="">
        <dc:format>image/svg+xml</dc:format>
        <dc:type
           rdf:resource="http://purl.org/dc/dcmitype/StillImage" />
      </cc:Work>
    </rdf:RDF>
  </metadata>
  <sodipodi:namedview
     pagecolor="#ffffff"
     bordercolor="#666666"
     borderopacity="1"
     objecttolerance="10"
     gridtolerance="10"
     guidetolerance="10"
     inkscape:pageopacity="0"
     inkscape:pageshadow="2"
     inkscape:window-width="640"
     inkscape:window-height="480"
     id="namedview9" />
  <defs
     id="defs2782" />
  <g
     transform="translate(-12.752281,-807.78534)"
     id="layer1">
    <path
       d="M 13.752281,808.78534 L 17.716536,975.31103 C 20.548139,1094.258 224.99069,1094.258 227.8223,975.31103 L 231.78656,808.78534 L 13.752281,808.78534 z"
       id="path3282"
       style="fill:#fde942;fill-opacity:1;fill-rule:evenodd;stroke:#000000;stroke-width:2;stroke-linecap:butt;stroke-miterlimit:4;stroke-dashoffset:0;stroke-opacity:1" />
    <path
       d="M 140.09551,855.89319 L 140.09551,868.98694 L 134.84551,868.98694 L 134.84551,863.08069 L 127.37676,863.08069 L 127.37676,868.98694 L 118.16208,868.98694 L 118.16208,863.08069 L 110.69333,863.08069 L 110.69333,868.98694 L 105.44333,868.98694 L 105.44333,855.89319 L 140.09551,855.89319 z M 148.22051,847.79944 L 148.22051,859.79944 C 151.03711,857.4733 153.80998,860.13225 153.00176,862.70569 C 189.93716,831.61537 209.31141,876.64001 218.25176,872.95569 L 218.25176,870.51819 C 218.25176,868.96091 219.50698,867.70569 221.06426,867.70569 C 222.62154,867.70569 223.87676,868.9609 223.87676,870.51819 L 223.87676,880.98694 C 223.87676,882.54422 222.62154,883.79944 221.06426,883.79944 C 219.50698,883.79944 218.25176,882.54422 218.25176,880.98694 L 218.25176,880.67444 C 215.61581,882.51887 210.39223,882.4155 208.34551,880.79944 C 176.89543,855.96696 167.84212,862.78491 149.47051,884.11194 L 96.068329,884.11194 C 77.696721,862.78491 68.643408,855.96696 37.193329,880.79944 C 35.146609,882.4155 29.923032,882.51887 27.287079,880.67444 L 27.287079,880.98694 C 27.287079,882.54422 26.031862,883.79944 24.474579,883.79944 C 22.917296,883.79944 21.662079,882.54422 21.662079,880.98694 L 21.662079,870.51819 C 21.662079,868.9609 22.917296,867.70569 24.474579,867.70569 C 26.031862,867.70569 27.287079,868.96091 27.287079,870.51819 L 27.287079,872.95569 C 36.227427,876.64001 55.601677,831.61537 92.537079,862.70569 C 91.728858,860.13225 94.501732,857.4733 97.318329,859.79944 L 97.318329,847.79944 L 148.22051,847.79944 z"
       id="path3684"
       style="fill:#000000;fill-opacity:1;fill-rule:evenodd;stroke:none;stroke-width:1px;stroke-linecap:butt;stroke-linejoin:miter;stroke-opacity:1" />
    <path
       d="M 126.78354,931.68278 L 126.78354,925.77653 L 134.25229,925.77653 L 134.25229,931.68278 L 139.50229,931.68278 L 139.50229,918.58903 L 106.03655,918.58903 L 106.03655,931.68278 L 111.28655,931.68278 L 111.28655,925.77653 L 118.7553,925.77653 L 118.7553,931.68278 L 126.78354,931.68278 z M 148.8773,946.80778 C 167.24891,925.48075 179.82859,920.25472 203.02492,939.67905 C 204.76213,941.13377 215.32745,946.2714 216.66106,940.69031 C 216.66106,942.24759 217.91628,943.50281 219.47356,943.50281 C 221.03084,943.50281 222.28606,942.24759 222.28606,940.69031 L 222.28606,932.21654 C 222.28606,930.65925 221.03084,929.40404 219.47356,929.40404 C 217.91628,929.40404 216.66106,930.65926 216.66106,932.21654 L 216.66106,933.90592 C 207.72071,937.59024 189.34395,894.31121 152.40855,925.40153 C 153.21677,922.82809 150.4439,920.16914 147.6273,922.49528 L 147.6273,910.49528 L 97.911543,910.49528 L 97.911543,922.49528 C 95.094946,920.16914 92.322072,922.82809 93.130293,925.40153 C 56.194891,894.31121 37.818132,937.59024 28.877784,933.90592 L 28.877784,932.21654 C 28.877784,930.65926 27.622567,929.40404 26.065284,929.40404 C 24.508001,929.40404 23.252784,930.65925 23.252784,932.21654 L 23.252784,940.69031 C 23.252784,942.24759 24.508001,943.50281 26.065284,943.50281 C 27.622567,943.50281 28.877784,942.24759 28.877784,940.69031 C 30.211393,946.2714 40.776718,941.13377 42.513927,939.67905 C 65.710252,920.25472 78.289935,925.48075 96.661543,946.80778 L 148.8773,946.80778 z"
       id="use4211"
       style="opacity:1;color:#000000;fill:#000000;fill-opacity:1;fill-rule:evenodd;stroke:none;stroke-width:1px;stroke-linecap:butt;stroke-linejoin:miter;marker:none;marker-start:none;marker-mid:none;marker-end:none;stroke-miterlimit:4;stroke-dasharray:none;stroke-dashoffset:0;stroke-opacity:1;visibility:visible;display:inline;overflow:visible;enable-background:accumulate" />
    <path
       d="M 127.09602,994.37861 L 127.09602,988.47236 L 134.56477,988.47236 L 134.56477,994.37861 L 139.81477,994.37861 L 139.81477,981.28486 L 105.72407,981.28486 L 105.72407,994.37861 L 110.97407,994.37861 L 110.97407,988.47236 L 118.44282,988.47236 L 118.44282,994.37861 L 127.09602,994.37861 z M 149.18977,1009.5036 C 166.23888,989.41091 180.64547,982.66853 202.46619,1003.1494 C 205.03658,1005.5619 211.43276,1007.3068 213.1237,1004.6685 C 213.57257,1005.6232 214.54199,1006.2816 215.66986,1006.2816 C 217.22714,1006.2816 218.48236,1005.0264 218.48236,1003.4691 L 218.48236,994.76369 C 218.48236,993.2064 217.22714,991.95119 215.66986,991.95119 C 214.11258,991.95119 212.85736,993.20641 212.85736,994.76369 L 212.85736,995.96686 C 204.40193,999.21258 190.53809,960.0047 152.72102,988.09736 C 153.52924,985.52392 150.75637,982.86497 147.93977,985.19111 L 147.93977,973.19111 L 97.599069,973.19111 L 97.599069,985.19111 C 94.782472,982.86497 92.009598,985.52392 92.817819,988.09736 C 55.000751,960.0047 41.136911,999.21258 32.681479,995.96686 L 32.681479,994.76369 C 32.681479,993.20641 31.426262,991.95119 29.868979,991.95119 C 28.311696,991.95119 27.056479,993.2064 27.056479,994.76369 L 27.056479,1003.4691 C 27.056479,1005.0264 28.311696,1006.2816 29.868979,1006.2816 C 30.996847,1006.2816 31.966268,1005.6232 32.415138,1004.6685 C 34.106079,1007.3068 40.502256,1005.5619 43.072645,1003.1494 C 64.893367,982.66853 79.299959,989.41091 96.349069,1009.5036 L 149.18977,1009.5036 z"
       id="path4366"
       style="opacity:1;color:#000000;fill:#000000;fill-opacity:1;fill-rule:evenodd;stroke:none;stroke-width:1px;stroke-linecap:butt;stroke-linejoin:miter;marker:none;marker-start:none;marker-mid:none;marker-end:none;stroke-miterlimit:4;stroke-dasharray:none;stroke-dashoffset:0;stroke-opacity:1;visibility:visible;display:inline;overflow:visible;enable-background:accumulate" />
  </g>
</svg>

<?xml version="1.0" encoding="UTF-8"?>
<svg version="1.0" viewBox="0 0 220.03 257.74" xmlns="http://www.w3.org/2000/svg" xmlns:cc="http://creativecommons.org/ns#" xmlns:dc="http://purl.org/dc/elements/1.1/" xmlns:rdf="http://www.w3.org/1999/02/22-rdf-syntax-ns#">
<metadata>
<rdf:RDF>
<cc:Work rdf:about="">
<dc:format>image/svg+xml</dc:format>
<dc:type rdf:resource="http://purl.org/dc/dcmitype/StillImage"/>
</cc:Work>
</rdf:RDF>
</metadata>
<g transform="translate(-12.752 -807.79)" fill-rule="evenodd">
<path d="m13.752 808.79 3.9643 166.53c2.8316 118.95 207.27 118.95 210.11 0l3.9643-166.53h-218.03z" fill="#fde942" stroke="#000" stroke-width="2"/>
<path d="m140.1 855.89v13.094h-5.25v-5.9062h-7.4688v5.9062h-9.2147v-5.9062h-7.4688v5.9062h-5.25v-13.094h34.652zm8.125-8.0938v12c2.8166-2.3261 5.5895 0.33281 4.7812 2.9062 36.935-31.09 56.31 13.934 65.25 10.25v-2.4375c0-1.5573 1.2552-2.8125 2.8125-2.8125s2.8125 1.2552 2.8125 2.8125v10.469c0 1.5573-1.2552 2.8125-2.8125 2.8125s-2.8125-1.2552-2.8125-2.8125v-0.3125c-2.636 1.8444-7.8595 1.7411-9.9062 0.125-31.45-24.832-40.503-18.015-58.875 3.3125h-53.402c-18.372-21.327-27.425-28.145-58.875-3.3125-2.0467 1.6161-7.2703 1.7194-9.9062-0.125v0.3125c0 1.5573-1.2552 2.8125-2.8125 2.8125s-2.8125-1.2552-2.8125-2.8125v-10.469c0-1.5573 1.2552-2.8125 2.8125-2.8125s2.8125 1.2552 2.8125 2.8125v2.4375c8.9403 3.6843 28.315-41.34 65.25-10.25-0.80822-2.5734 1.9647-5.2324 4.7812-2.9062v-12h50.902z"/>
<path d="m126.78 931.68v-5.9062h7.4688v5.9062h5.25v-13.094h-33.466v13.094h5.25v-5.9062h7.4688v5.9062h8.0282zm22.094 15.125c18.372-21.327 30.951-26.553 54.148-7.1287 1.7372 1.4547 12.303 6.5924 13.636 1.0113 0 1.5573 1.2552 2.8125 2.8125 2.8125s2.8125-1.2552 2.8125-2.8125v-8.4738c0-1.5573-1.2552-2.8125-2.8125-2.8125s-2.8125 1.2552-2.8125 2.8125v1.6894c-8.9404 3.6843-27.317-39.595-64.253-8.5044 0.80822-2.5734-1.9646-5.2324-4.7812-2.9062v-12h-49.716v12c-2.8166-2.3261-5.5895 0.33281-4.7812 2.9062-36.935-31.09-55.312 12.189-64.253 8.5044v-1.6894c0-1.5573-1.2552-2.8125-2.8125-2.8125s-2.8125 1.2552-2.8125 2.8125v8.4738c0 1.5573 1.2552 2.8125 2.8125 2.8125s2.8125-1.2552 2.8125-2.8125c1.3336 5.5811 11.899 0.44346 13.636-1.0113 23.196-19.424 35.776-14.198 54.148 7.1287h52.216z" color="#000000"/>
<path d="m127.1 994.38v-5.9062h7.4688v5.9062h5.25v-13.094h-34.091v13.094h5.25v-5.9062h7.4688v5.9062h8.6532zm22.094 15.125c17.049-20.093 31.456-26.835 53.276-6.3542 2.5704 2.4125 8.9666 4.1574 10.658 1.5191 0.44887 0.9547 1.4183 1.6131 2.5462 1.6131 1.5573 0 2.8125-1.2552 2.8125-2.8125v-8.7054c0-1.5573-1.2552-2.8125-2.8125-2.8125s-2.8125 1.2552-2.8125 2.8125v1.2032c-8.4554 3.2457-22.319-35.962-60.136-7.8695 0.80822-2.5734-1.9646-5.2324-4.7812-2.9062v-12h-50.341v12c-2.8166-2.3261-5.5895 0.33281-4.7812 2.9062-37.817-28.093-51.681 11.115-60.136 7.8695v-1.2032c0-1.5573-1.2552-2.8125-2.8125-2.8125s-2.8125 1.2552-2.8125 2.8125v8.7054c0 1.5573 1.2552 2.8125 2.8125 2.8125 1.1279 0 2.0973-0.6584 2.5462-1.6131 1.6909 2.6383 8.0871 0.8934 10.658-1.5191 21.821-20.481 36.227-13.738 53.276 6.3542h52.841z" color="#000000"/>
</g>
</svg>
